svg/gb/ess.svg

<svg xmlns="http://www.w3.org/2000/svg" xmlns:xlink="http://www.w3.org/1999/xlink" width="450" height="300"><path fill="#cf142b" d="M0 0h450v300H0z"/><g id="a" fill="#f7e017" stroke="#000" stroke-width=".8"><path d="M147.341 53.889C289.772.603 358.38 70.44 358.38 70.44c-38.918-6.459-57.775 21.395-57.775 21.395-13.641-8.073-19.351-12.762-19.351-12.762 6.445-2.506 10.26-13.947.17-19.44-9.781-5.324-19.13 6.941-15.123 14.238-54.185-19.695-110.282-1.819-109.732-1.413l-14.444-4.844z" fill="#fff"/><path d="M143.128 66.475c80.243-28.661 141.429-22.707 178.14 8.074l8.024-3.23c-32.9-28.258-81.045-40.368-157.678-17.762-24.715 7.291-28.486 10.092-28.486 10.092z" fill="#96877d" stroke="none"/><path d="M140.994 58.264s-5.325.422-8.125 2.052c-2.799 1.63-3.074 4.468-3.074 4.468s-5.627-.434-7.922 1.246c-2.294 1.68-1.256 5.475-1.256 5.475s-4.734-1.183-6.641-.05c-1.906 1.132-.984 4.581-.984 4.581s-5.593-1.586-7.651.151-.581 6.797-.581 6.797-5.441-1.435-7.448.151c-2.008 1.585-.581 6.192-.581 6.192s-8.218 4.822-3.813 9.012c7.637 5.197 11.312-4.355 11.312-4.355s5.706.44 8.08-.931c2.373-1.372 2.626-3.751 2.626-3.751s4.595.39 7.07-1.133c2.474-1.523 2.828-4.959 2.828-4.959s4.191 1.296 6.262.277c2.07-1.019 2.02-4.355 2.02-4.355s4.141.614 6.161-.384c2.019-.997 1.918-3.606 1.918-3.606s2.929.715 5.555-.182 4.949-3.405 4.949-3.405z"/><path d="M141.012 24.4c-2.267.003-4.613.561-6.488 1.722-5.215 3.229-9.596 12.397 6.854 35.81.094.142 9.254 11.419 10.257 12.681 1.605 2.018 8.422 16.568 8.021 21.412 0 0-2.338-3.054-6.35-3.054s-5.997 1.271-5.194 5.711c.802 4.441 10.748 6.598 15.964 3.369 5.216-3.23 10.033-12.094-6.417-35.508-.098-.149-9.702-11.736-10.694-12.984-1.598-2.01-8.364-16.44-8.02-21.34.192.237 3.349 3.41 7.236 3.41 4.012 0 4.862-2.519 4.059-6.959-.514-2.845-5.186-4.275-9.228-4.27z"/><path d="M158.313 57.798l-15.151-2.968-2.965 15.245 15.151 2.969z"/><path d="M145.301 59.797a5.724 2.52 46.398 0 0 7.908 8.279 5.724 2.52 46.398 1 0-7.908-8.279zM96.897 89.557l7.366 4.665M104.893 83.008l10.03 6.459M112.717 76.19l12.036 7.178M120.741 71.547l12.036 7.381M129.586 64.718l11.799 10.543M141.002 40.824c-6.419-3.432-5.617-5.248-5.617-5.248M144.011 48.494c-4.814 1.211-7.623-1.817-7.623-1.817M157.938 87.794c6.419 3.431 5.617 5.248 5.617 5.248M154.928 80.124c4.815-1.211 7.624 1.816 7.624 1.816"/></g><use xlink:href="#a" y="86"/><use xlink:href="#a" y="172"/></svg>

<?xml version="1.0" encoding="UTF-8"?>
<svg xmlns="http://www.w3.org/2000/svg" xmlns:xlink="http://www.w3.org/1999/xlink" width="450" height="300">
	<rect width="450" height="300" fill="#cf142b"/>
	<g id="seax" fill="#f7e017" stroke="#000" stroke-width=".8">
		<path d="M 147.341,53.889 C 289.772,0.603 358.38,70.44 358.38,70.44 C 319.462,63.981 300.605,91.835 300.605,91.835 C 286.964,83.762 281.254,79.073 281.254,79.073 C 287.699,76.567 291.514,65.126 281.424,59.633 C 271.643,54.309 262.294,66.574 266.301,73.871 C 212.116,54.176 156.019,72.052 156.569,72.458 L 142.125,67.614 z" fill="#fff"/>
		<path d="M 143.128,66.475 C 223.371,37.814 284.557,43.768 321.268,74.549 C 321.268,74.549 329.292,71.319 329.292,71.319 C 296.392,43.061 248.247,30.951 171.614,53.557 C 146.899,60.848 143.128,63.649 143.128,63.649 z" fill="#96877d" stroke="none"/>
		<path d="M 140.994,58.264 C 140.994,58.264 135.669,58.686 132.869,60.316 C 130.07,61.946 129.795,64.784 129.795,64.784 C 129.795,64.784 124.168,64.35 121.873,66.03 C 119.579,67.71 120.617,71.505 120.617,71.505 C 120.617,71.505 115.883,70.322 113.976,71.455 C 112.07,72.587 112.992,76.036 112.992,76.036 C 112.992,76.036 107.399,74.45 105.341,76.187 C 103.283,77.924 104.76,82.984 104.76,82.984 C 104.76,82.984 99.319,81.549 97.312,83.135 C 95.304,84.72 96.731,89.327 96.731,89.327 C 96.731,89.327 88.513,94.149 92.918,98.339 C 100.555,103.536 104.23,93.984 104.23,93.984 C 104.23,93.984 109.936,94.424 112.31,93.053 C 114.683,91.681 114.936,89.302 114.936,89.302 C 114.936,89.302 119.531,89.692 122.006,88.169 C 124.48,86.646 124.834,83.21 124.834,83.21 C 124.834,83.21 129.025,84.506 131.096,83.487 C 133.166,82.468 133.116,79.132 133.116,79.132 C 133.116,79.132 137.257,79.746 139.277,78.748 C 141.296,77.751 141.195,75.142 141.195,75.142 C 141.195,75.142 144.124,75.857 146.75,74.96 C 149.376,74.063 151.699,71.555 151.699,71.555 z"/>
		<path d="M 141.012,24.4 C 138.745,24.403 136.399,24.961 134.524,26.122 C 129.309,29.351 124.928,38.519 141.378,61.932 C 141.472,62.074 150.632,73.351 151.635,74.613 C 153.24,76.631 160.057,91.181 159.656,96.025 C 159.656,96.025 157.318,92.971 153.306,92.971 C 149.294,92.971 147.309,94.242 148.112,98.682 C 148.914,103.123 158.86,105.28 164.076,102.051 C 169.292,98.821 174.109,89.957 157.659,66.543 C 157.561,66.394 147.957,54.807 146.965,53.559 C 145.367,51.549 138.601,37.119 138.945,32.219 C 139.137,32.456 142.294,35.629 146.181,35.629 C 150.193,35.629 151.043,33.11 150.24,28.67 C 149.726,25.825 145.054,24.395 141.012,24.4 z"/>
		<path d="M 158.313,57.798 L 143.162,54.83 L 140.197,70.075 L 155.348,73.044 z"/>
		<path d="M 145.301,59.797 A 5.724 2.52 46.397665 0 0 153.209,68.076 A 5.724 2.52 46.397665 1 0 145.301,59.797 z"/>
		<path d="M 96.897,89.557 L 104.263,94.222"/>
		<path d="M 104.893,83.008 L 114.923,89.467"/>
		<path d="M 112.717,76.19 L 124.753,83.368"/>
		<path d="M 120.741,71.547 L 132.777,78.928"/>
		<path d="M 129.586,64.718 L 141.385,75.261"/>
		<path d="M 141.002,40.824 C 134.583,37.392 135.385,35.576 135.385,35.576"/>
		<path d="M 144.011,48.494 C 139.197,49.705 136.388,46.677 136.388,46.677"/>
		<path d="M 157.938,87.794 C 164.357,91.225 163.555,93.042 163.555,93.042"/>
		<path d="M 154.928,80.124 C 159.743,78.913 162.552,81.94 162.552,81.94"/>
	</g>
	<use xlink:href="#seax" y="86"/>
	<use xlink:href="#seax" y="172"/>
</svg>
